X: 100219
M: C|
L: 1/8
K: Gm
ue | (d3d) {e}d2cB | {D}B2BB {E}c2cc | (d3e) {e}d2cB | AG^FA G/G/G (G :|
vB<B (fg) (fd)dc | B<B (fB) d<d ~"^#"d2 | B<B (fg) (fd)db | gffB G/G/G G2 |


